!!!OTL@@FUR: La biele sompladine
!!!OTL@IT: La bella di Somplago
!!!OTL@EN: The beautiful girl from Somplago
**kern
*clefG2
*k[f#
*G:
*M6/8
*MM60
*>[A,A]
*>A
8d
=1
4g
8a
4b
8g
=2
8a
8g
8e
4d
8d
=3
4g
8g
4f#
8f#
=4
[4.g
8g]
8r
8d
=5
4g
8g
4b
8b
=6
4.dd
4ee
8dd
=7
8b
8g
8a
4b
8a
=8
[4.g
8g]
8r
==:|!
*-
!!!ARE: Friuli
!!!ENC: Kelly Leistikow
!!!END: 2002/03/07
!!!ref: @{OTL@@FUR}/@{OTL@EN}
